!!!!SEGMENT: pl-kk--kk-i-218_anonim--o-doctor-optime.krn
!!!cenid: 16xx:773
!!!COM: Anonim
!!!COM-rismID: pe30004985
!!!CDT:
!!!CNT:
!!!OTL: O doctor optime
!!!PDT:
!!!AGN: Sacred
!!!SMS-siglum: PL-Kk
!!!SMS-shelfmark: Kk.I.218
!!!SMS-shelfwork: W
!!!SMS-variant:
!!!SMS-altvar:
!!!NIFC-rismSourceID: 1001143679
!!!NIFC-islandoraID: pl-kk:4277
!!!URL-pdf-islandora: https://repozytorium.nifc.pl/islandora/object/pl-kk%3A4277/datastream/PDF/view
!!!URL-scan: https://polish.musicsources.pl/pl/lokalizacje/galeria/rekopisy/5843 @EN{Scan on Polish Music Herritage in Open Access Website} @PL{Skany w portalu Dziedzictwo Muzyki Polskiej w otwartym dostępie}
!!!ONB-nifc:
!!!AIN: 1 alto 2 empty 2 tenor 1 vox
!!!key:
**kern	**text	**kern	**text	**kern	**text	**dynam	**kern	**text	**kern	**text	**kern	**text
*part6	*part6	*part5	*part5	*part4	*part4	*part4	*part3	*part3	*part2	*part2	*part1	*part1
*staff6	*staff6	*staff5	*staff5	*staff4	*staff4	*	*staff3	*staff3	*staff2	*staff2	*staff1	*staff1
*Iempty	*	*Iempty	*	*Itenor	*	*	*Itenor	*	*Ialto	*	*Ivox	*
*I"Baſso Ripieno.	*	*I"Baſso.	*	*I"Tenore Vagante	*	*	*I"Tenore	*	*I"Alto.	*	*I"Canto.	*
*I'bc	*	*I'B	*	*I'T vag	*	*	*	*	*I'A	*	*	*
*clefC4	*	*clefC4	*	*clefC3	*	*	*clefC3	*	*clefC2	*	*clefG2	*
*k[]	*	*k[]	*	*k[]	*	*	*k[]	*	*k[]	*	*k[]	*
*C:	*	*C:	*	*C:	*	*	*C:	*	*C:	*	*C:	*
*M2/2	*	*M2/2	*	*M2/2	*	*	*M2/2	*	*M2/2	*	*M2/2	*
*met(c|)	*	*met(c|)	*	*met(c|)	*	*	*met(c|)	*	*met(c|)	*	*met(c|)	*
=1	=1	=1	=1	=1	=1	=1	=1	=1	=1	=1	=1	=1
00r	.	00r	.	00r	.	.	00r	.	0r	.	1g	O
=2	=2	=2	=2	=2	=2	=2	=2	=2	=2	=2	=2	=2
.	.	.	.	.	.	.	.	.	.	.	1.cc	Do-
=3	=3	=3	=3	=3	=3	=3	=3	=3	=3	=3	=3-	=3
.	.	.	.	.	.	.	.	.	1r	.	.	.
*	*	*	*	*	*	*	*	*	*	*	*2\right	*
.	.	.	.	.	.	.	.	.	.	.	2dd\	-ctor
=4	=4	=4	=4	=4	=4	=4	=4	=4	=4	=4	=4	=4
.	.	.	.	.	.	.	.	.	1c	O	2.ee\	o-
.	.	.	.	.	.	.	.	.	.	.	4ee\	-pti-
=5	=5	=5	=5	=5	=5	=5	=5	=5	=5-	=5	=5-	=5
!	!	!	!	!	!	!	!	!	!	!	!LO:TX:t=P:global:problem=oddech jako rozdzielacz słów	!
0r	.	0r	.	00r	.	.	1G	O	1.g	Do-	1dd,<	-me.
=6	=6	=6	=6	=6	=6	=6	=6	=6	=6-	=6	=6	=6
.	.	.	.	.	.	.	1.c	Do-	.	.	2ee\	Ec-
*	*	*	*	*	*	*	*	*	*2\right	*	*	*
.	.	.	.	.	.	.	.	.	2g\	-ctor	1gg\	-cle-
=7	=7	=7	=7	=7	=7	=7	=7-	=7	=7	=7	=7-	=7
1r	.	1r	.	.	.	.	.	.	2.a\	O-	.	.
*	*	*	*	*	*	*	*2\right	*	*	*	*	*
.	.	.	.	.	.	.	2d\	-ctor	.	.	2ff\	-si-
.	.	.	.	.	.	.	.	.	4a\	-pti-	.	.
=8	=8	=8	=8	=8	=8	=8	=8	=8	=8-	=8	=8	=8
!	!	!	!	!	!	!	!	!	!LO:TX:t=P:global:problem=oddech jako rozdzielacz słów	!	!	!
1C	O	1C	O	.	.	.	2.e\	O-	1g,<	-me	2ee,<\	-ae
.	.	.	.	.	.	.	.	.	.	.	2cc\	San-
.	.	.	.	.	.	.	4e\	-pti-	.	.	.	.
=9	=9	=9	=9	=9	=9	=9	=9	=9	=9	=9	=9	=9
!	!	!	!	!	!	!	!LO:TX:t=P:global:problem=oddech jako rozdzielacz słów	!	!	!	!	!
1.G	Do-	1.G	Do-	00r	.	.	2d,<\	-me	2b\	Ec-	2dd\	-ctae
.	.	.	.	.	.	.	2e\	Ec-	1cc\	-cle-	2g/	Lu-
=10-	=10	=10-	=10	=10	=10	=10	=10	=10	=10-	=10	=10	=10
.	.	.	.	.	.	.	4d\	-cle-	.	.	1dd,<	-men.
.	.	.	.	.	.	.	4G/	.	.	.	.	.
2G/	-ctor	2G/	-ctor	.	.	.	1g\	.	2b\	-si-	.	.
=11	=11	=11	=11	=11	=11	=11	=11-	=11	=11	=11	=11	=11
2.A/	o-	2.A/	O-	.	.	.	.	.	4cc\	-ae	2r	.
.	.	.	.	.	.	.	.	.	4a\	.	.	.
.	.	.	.	.	.	.	2f\	-si-	1cc\	San-	2cc\	Ec-
4A/	-pti-	4A/	-pti-	.	.	.	.	.	.	.	.	.
=12	=12	=12-	=12	=12	=12	=12	=12	=12	=12-	=12	=12	=12
!LO:TX:t=P:global:problem=oddech jako rozdzielacz słów	!	!LO:TX:t=P:global:problem=oddech jako rozdzielacz słów	!	!	!	!	!	!	!	!	!	!
1G,<	-me	1G,<	-me	.	.	.	2e,<\	-ae	.	.	2.gg\	-cle-
.	.	.	.	.	.	.	2d\	San-	2b\	-ctae	.	.
.	.	.	.	.	.	.	.	.	.	.	4gg\	-si-
=13	=13	=13	=13	=13	=13	=13	=13	=13	=13	=13	=13-	=13
*2\right	*	*2\right	*	*	*	*	*	*	*	*	*	*
2A\	Ec-	2A\	Ec-	1r	.	.	1c	.	2a\	Lu-	(2ff\	-ae
1c\	-cle-	1c\	-cle-	.	.	.	.	.	4g\	.	2ee\)	.
.	.	.	.	.	.	.	.	.	4f\	.	.	.
=14-	=14	=14-	=14	=14	=14	=14	=14-	=14	=14-	=14	=14-	=14
.	.	.	.	1G	O	.	2d,<\	-ctae	1g	.	1dd,<	.
2B\	-si-	2B\	-si-	.	.	.	2d\	Ec-	.	.	.	.
!	!	!	!	!	!	!	!	!	!	!	!LO:LB:g=original	!
=15	=15	=15	=15	=15	=15	=15	=15-	=15	=15-	=15	=15	=15
2.A/	-ae	2.A/	-ae	1.c	Do-	.	1e	-cle-	0a,<	-men,	1.cc	San-
4G,</	.	4G/	.	.	.	.	.	.	.	.	.	.
=16-	=16	=16	=16	=16-	=16	=16	=16-	=16	=16	=16	=16-	=16
1F	San-	1F	San-	.	.	.	2.f\	.	.	.	.	.
*	*	*	*	*2\right	*	*	*	*	*	*	*	*
.	.	.	.	2d\	-ctor	.	.	.	.	.	2a/	-ctae
.	.	.	.	.	.	.	4f\	-si-	.	.	.	.
=17-	=17	=17-	=17	=17	=17	=17	=17	=17	=17	=17	=17	=17
1C	-ctae	1C	-ctae	2.e\	o-	.	[<1g	-ae	0r	.	4cc\	Lu-
.	.	.	.	.	.	.	.	.	.	.	4a/	.
.	.	.	.	.	.	.	.	.	.	.	1cc\	.
.	.	.	.	4e\	-pti-	.	.	.	.	.	.	.
!	!	!	!	!	!	!	!LO:LB:g=original	!	!	!	!	!
=18	=18	=18	=18	=18	=18	=18	=18	=18	=18	=18	=18	=18
!	!	!	!	!LO:TX:t=P:global:problem=oddech jako rozdzielacz słów	!	!	!LO:TX:a:t=P:problem=brak zakończenia ligatury	!	!	!	!	!
(1G	lu-	1G	Lu-	1d,<	-me	.	2g,<\]	.	.	.	.	.
.	.	.	.	.	.	.	[<2g\	San-	.	.	2b\	.
=19-	=19	=19-	=19	=19	=19	=19	=19	=19	=19	=19	=19	=19
!	!	!	!	!	!	!	!LO:N:xstem:cue	!	!	!	!	!
1C)	.	1C	.	2e\	Ec-	.	4g\]	.	1r	.	2cc,<\	-men!
.	.	.	.	.	.	.	4f\	.	.	.	.	.
.	.	.	.	1g\	-cle-	.	2e\	.	.	.	2cc\	Be-
=20	=20	=20-	=20	=20-	=20	=20	=20-	=20	=20	=20	=20	=20
1D,<	-men	1D,<	-men	.	.	.	1d,<	-ctae	2r	.	(2.a/	-a-
.	.	.	.	2f\	-si-	.	.	.	1a\	Ec-	.	.
.	.	.	.	.	.	.	.	.	.	.	4b\)	.
=21-	=21	=21	=21	=21	=21	=21	=21-	=21	=21-	=21	=21	=21
!LO:SIC:v:s=C	!	!	!	!	!	!	!	!	!	!	!	!
2A\	Ec-	2A\	Ec-	2e,<\	-ae	.	1c	lu-	.	.	4cc\	.
.	.	.	.	.	.	.	.	.	.	.	4dd\	.
1c\	-cle-	1c\	-cle-	2c/	San-	.	.	.	1g\	-cle-	[<2ee\	-te
=22-	=22	=22-	=22	=22-	=22	=22	=22-	=22	=22-	=22	=22	=22
!	!	!	!	!	!	!	!	!	!	!	!LO:N:xstem:cue	!
.	.	.	.	1d	-ctae	.	1G,<	-men	.	.	4ee\]	.
!	!	!	!	!	!	!	!	!	!	!	!LO:TX:b:t=P:problem=tu wstawiano imię błogosławionego/świętego	!
.	.	.	.	.	.	.	.	.	.	.	4dd\	N[omen]
2B\	-si-	2B\	-si-	.	.	.	.	.	2g\	-si-	[<2dd\	.
!	!	!LO:LB:g=original	!	!	!	!	!	!	!	!	!	!
=23	=23	=23	=23	=23	=23	=23	=23	=23	=23-	=23	=23	=23
!	!	!	!	!	!	!	!	!	!	!	!LO:N:xstem:cue	!
2A,</	-ae	2A,</	-ae	2e\	.	.	1r	.	1a,<	-ae	4dd\]	.
.	.	.	.	.	.	.	.	.	.	.	4cc\	.
2F/	San-	2F/	San-	2f\	Lu-	.	.	.	.	.	1cc\	.
!	!	!	!	!	!	!	!	!	!LO:LB:g=original	!	!	!
=24-	=24	=24	=24	=24-	=24	=24	=24-	=24	=24	=24	=24-	=24
2G/	-ctae	2G,</	-ctae	1d	.	.	2r	.	1g	San-	.	.
2G/	lu-	2G/	Lu-	.	.	.	1g\	Be-	.	.	2b\	.
=25-	=25	=25-	=25	=25-	=25	=25	=25-	=25	=25	=25	=25-	=25
1C,<	-men	1C,<	-men	1c,<	-men	.	.	.	2c/	-ctae	1cc,<	.
.	.	.	.	.	.	.	2e\	.	1cc\	Lu-	.	.
!	!	!	!	!LO:LB:g=original	!	!	!	!	!	!	!	!
=26	=26	=26	=26	=26	=26	=26	=26	=26	=26-	=26	=26	=26
0r	.	0r	.	2r	.	.	2f\	-a-	.	.	2.dd\	be-
.	.	.	.	1g\	Be-	.	2g\	.	2b\	.	.	.
.	.	.	.	.	.	.	.	.	.	.	4cc\	.
=27	=27	=27	=27	=27-	=27	=27	=27-	=27	=27	=27	=27	=27
.	.	.	.	.	.	.	2c/	-te	2cc,<\	-men!	2ee\	-a-
!	!	!	!	!	!	!	!LO:TX:b:t=P:problem=tu wstawiano imię błogosławionego/świętego	!	!	!	!	!
.	.	.	.	2f#X\	-a-	.	2d\	N[omen]	2a\	Be-	2dd\	-te
=28-	=28	=28-	=28	=28	=28	=28	=28	=28	=28-	=28	=28	=28
!	!	!	!	!	!	!	!	!	!	!	!LO:TX:b:t=P:problem=tu wstawiano imię błogosławionego/świętego	!
2r	.	2r	.	2g\	-te	.	2.G/	.	2.b\	-a-	2.dd\	N[omen]
!	!	!	!	!LO:TX:b:t=P:problem=tu wstawiano imię błogosławionego/świętego	!	!	!	!	!	!	!	!
1G/	Be-	1G/	Be-	2d\	N[omen].	.	.	.	.	.	.	.
.	.	.	.	.	.	.	4A/	.	4a\	.	4cc\	.
=29-	=29	=29-	=29	=29-	=29	=29	=29-	=29	=29	=29	=29	=29
.	.	.	.	2e\	.	.	4B/	.	2g\	.	2b\	.
.	.	.	.	.	.	.	4G/	.	.	.	.	.
2E/	.	2E/	-a-	2e\	.	.	1c\	.	2g\	-te	2cc\	.
!LO:LB:g=original	!	!	!	!	!	!	!	!	!	!	!	!
=30-	=30	=30-	=30	=30-	=30	=30	=30-	=30	=30-	=30	=30-	=30
!	!	!	!	!	!	!	!	!	!LO:TX:b:t=P:problem=tu wstawiano imię błogosławionego/świętego	!	!	!
2F/	-a-	2F/	-te	1d	.	.	.	.	2a\	N[omen]	2a/	.
2G/	-te	2G/	.	.	.	.	2B/	.	2.g\	.	2r	.
!	!	!	!	!	!	!	!	!	!	!	!LO:LB:g=original	!
=31	=31	=31	=31	=31	=31	=31	=31-	=31	=31-	=31	=31	=31
!LO:TX:b:t=P:problem=tu wstawiano imię błogosławionego/świętego	!	!LO:TX:b:t=P:problem=tu wstawiano imię błogosławionego/świętego	!	!	!	!	!	!	!	!	!	!
4C/	N[omen].	4C/	N[omen]	2r	.	.	1c,<	.	.	.	2.ee\	Di-
(4D/	.	4D/	.	.	.	.	.	.	4f\	.	.	.
4E/)	.	4E/	.	1g\	Be-	.	.	.	2e\	.	.	.
4F/	.	4F/	.	.	.	.	.	.	.	.	8dd\L	.
.	.	.	.	.	.	.	.	.	.	.	8cc\J	.
=32	=32	=32-	=32	=32-	=32	=32	=32	=32	=32	=32	=32-	=32
2G/	.	2G/	.	.	.	.	1r	.	2d/	.	2b\	-vi-
2A/	.	2A/	.	2e\	-a-	.	.	.	4c/	.	2cc\	.
.	.	.	.	.	.	.	.	.	4B/	.	.	.
=33-	=33	=33-	=33	=33	=33	=33	=33-	=33	=33-	=33	=33	=33
1D	.	1D	.	2f#X\	-te	.	2r	.	1A	.	2.dd\	-nae
!	!	!	!	!LO:TX:b:t=P:problem=tu wstawiano imię błogosławionego/świętego	!	!	!	!	!	!	!	!
.	.	.	.	2f#\	N[omen]	.	1d\	Be-	.	.	.	.
.	.	.	.	.	.	.	.	.	.	.	4cc\	.
=34-	=34	=34-	=34	=34	=34	=34	=34-	=34	=34-	=34	=34	=34
1G	.	1G,<	.	4g\	.	.	.	.	1G	.	2b\	le-
.	.	.	.	4d\	.	.	.	.	.	.	.	.
.	.	.	.	1g\	.	.	2B/	-a-	.	.	2dd\	-gis
=35	=35	=35	=35	=35-	=35	=35	=35	=35	=35	=35	=35	=35
1r	.	1r	.	.	.	.	2c\	.	1r	.	2cc\	a-
.	.	.	.	2f#X\	.	.	2d\	-te	.	.	2a/	-ma-
=36-	=36	=36-	=36	=36	=36	=36	=36	=36	=36	=36	=36-	=36
!	!	!	!	!	!	!	!LO:TX:b:t=P:problem=tu wstawiano imię błogosławionego/świętego	!	!	!	!	!
2r	.	2r	.	1g,<	.	.	4G/	N[omen]	2d/	be-	1b,<	-tor,
.	.	.	.	.	.	.	4A/	.	.	.	.	.
1G/	Be-	1G/	be-	.	.	.	4B/	.	2d/	-a-	.	.
.	.	.	.	.	.	.	4c/	.	.	.	.	.
=37-	=37	=37-	=37	=37	=37	=37	=37	=37	=37-	=37	=37	=37
.	.	.	.	2r	.	.	2d\	.	1g	-te	2r	.
!	!	!	!	!LO:TX:b:t=P:problem=tu wstawiano imię błogosławionego/świętego	!	!	!	!	!	!	!	!
2E/	-a-	2E/	-a-	2g\	N[omen]	.	2e\	.	.	.	1cc\	le-
!	!	!	!	!	!	!	!LO:LB:g=original	!	!	!	!	!
=38-	=38	=38-	=38	=38-	=38	=38	=38	=38	=38	=38	=38-	=38
!	!	!	!	!	!	!	!	!	!LO:TX:b:t=P:problem=tu wstawiano imię błogosławionego/świętego	!	!	!
2F/	-te	2F/	-te	2fn\	.	.	1d	.	2a\	N[omen]	.	.
*	*	*	*	*	*	*	*	*	*lig	*	*	*
!	!	!	!	!	!	!	!	!	!LO:N:vis=0	!	!	!
2G/	.	2G/	.	2d\	.	.	.	.	1g\	.	2b/	.
=39	=39	=39	=39	=39-	=39	=39	=39-	=39	=39-	=39	=39-	=39
!LO:TX:b:t=P:problem=tu wstawiano imię błogosławionego/świętego	!	!LO:TX:b:t=P:problem=tu wstawiano imię błogosławionego/świętego	!	!	!	!	!	!	!	!	!	!
4C/	N[omen]	4C/	N[omen]	0g,<	.	.	1c	.	.	.	2ee,<\	-gis
4D/	.	4D/	.	.	.	.	.	.	.	.	.	.
4E/	.	4E/	.	.	.	.	.	.	1cc\	.	2ee\	a-
4C/	.	4C/	.	.	.	.	.	.	.	.	.	.
=40-	=40	=40-	=40	=40-	=40	=40	=40	=40	=40-	=40	=40	=40
1G	.	1G	.	.	.	.	1d	.	.	.	1dd	-ma-
*	*	*	*	*	*	*	*	*	*Xlig	*	*	*
.	.	.	.	.	.	.	.	.	2b\	.	.	.
=41-	=41	=41-	=41	=41	=41	=41	=41-	=41	=41-	=41	=41-	=41
1C,<	.	1C,<	.	1g	Di-	.	1c,<	.	0cc,<	.	0ee,<	-tor;
!	!	!LO:LB:g=original	!	!	!	!	!	!	!	!	!	!
=42	=42	=42	=42	=42-	=42	=42	=42	=42	=42-	=42	=42-	=42
1c	Di-	1c	Di-	2g\	-vi-	.	2r	.	.	.	.	.
*	*	*	*	*	*	*	*	*	*custos:cc	*	*	*
.	.	.	.	2g\	-nae	.	2g\	Di-	.	.	.	.
!	!	!	!	!LO:LB:g=original	!	!	!	!	!LO:LB:g=original	!	!	!
=43-	=43	=43-	=43	=43	=43	=43	=43-	=43	=43	=43	=43	=43
1c	-vi-	1c	-vi-	2.e\	le-	.	2.g\	-vi-	2r	.	2r	.
.	.	.	.	.	.	.	.	.	2cc\	Di-	2gg\	Di-
.	.	.	.	4f\	.	.	4f\	.	.	.	.	.
=44-	=44	=44-	=44	=44-	=44	=44	=44	=44	=44-	=44	=44-	=44
1c	-nae	1c	-nae	2g,<\	-gis	.	(2.e\	-nae	[<1cc	-vi-	2gg\	-vi-
.	.	.	.	2c/	A-	.	.	.	.	.	2gg\	-nae
.	.	.	.	.	.	.	4f\	.	.	.	.	.
=45	=45	=45	=45	=45	=45	=45	=45-	=45	=45	=45	=45	=45
!	!	!	!	!	!	!	!	!	!LO:N:xstem:cue	!	!	!
1G	le-	1G	le-	1d	-ma-	.	1g,<)	.	4cc\]	.	2.gg\	le-
.	.	.	.	.	.	.	.	.	8b\L	.	.	.
.	.	.	.	.	.	.	.	.	8a\J	.	.	.
.	.	.	.	.	.	.	.	.	2b\	.	.	.
.	.	.	.	.	.	.	.	.	.	.	4ff\	.
=46-	=46	=46-	=46	=46-	=46	=46	=46	=46	=46-	=46	=46-	=46
1C	-gis	1C	-gis	2c,</	-tor	.	1g	le-	1cc,<	-nae	2.ee\	.
.	.	.	.	2G/	le-	.	.	.	.	.	.	.
.	.	.	.	.	.	.	.	.	.	.	8dd\L	.
.	.	.	.	.	.	.	.	.	.	.	8cc\J	.
=47	=47	=47	=47	=47-	=47	=47	=47-	=47	=47	=47	=47	=47
!	!	!	!	!	!	!	!	!	!	!	!LO:TX:t=P:problem=takt wątpliwy harmonicznie	!
1E	a-	1E	A-	2A,</	-gis	.	2e,<\	-gis	2g\	le-	2b,</	-gis
.	.	.	.	2A/	A-	.	[<2g\	A-	2c,</	-gis	2g/	a-
=48-	=48	=48-	=48	=48	=48	=48	=48	=48	=48-	=48	=48-	=48
!	!	!	!	!	!	!	!LO:N:xstem:cue	!	!	!	!	!
1D	-ma-	1D	-ma-	(2.B/	-ma-	.	4g\]	.	1.d	A-	(2.dd\	-ma-
.	.	.	.	.	.	.	8f#X\L	.	.	.	.	.
.	.	.	.	.	.	.	8e\J	.	.	.	.	.
.	.	.	.	.	.	.	2f#\	.	.	.	.	.
.	.	.	.	4A/)	.	.	.	.	.	.	4cc\)	.
!	!	!	!	!	!	!	!	!	!	!	!LO:LB:g=original	!
=49-	=49	=49-	=49	=49-	=49	=49	=49-	=49	=49-	=49	=49	=49
0G,<	-tor	0G,<	-tor.	2G,</	-tor:	.	0g	-ma-	.	.	1.b,<	-tor:
.	.	.	.	2.d\	de-	.	.	.	2c/	.	.	.
=50-	=50	=50-	=50	=50-	=50	=50	=50	=50	=50	=50	=50-	=50
.	.	.	.	.	.	.	.	.	2.B/	-ma-	.	.
.	.	.	.	4d\	-pre-	.	.	.	.	.	.	.
.	.	.	.	2d\	-ca-	.	.	.	.	.	[<2dd\	de-
.	.	.	.	.	.	.	.	.	4c/	.	.	.
!LO:LB:g=original	!	!	!	!	!	!	!	!	!	!	!	!
=51	=51	=51	=51	=51	=51	=51	=51	=51	=51-	=51	=51	=51
!	!	!	!	!	!	!	!	!	!	!	!LO:N:xstem:cue	!
2r	.	2r	.	2B/	-re	.	0g,<	-tor	4d/	.	4dd\]	.
.	.	.	.	.	.	.	.	.	4c/	.	4dd\	-pre-
2.G/	de-	2.G/	de-	2G/	pro	.	.	.	4B/	.	2dd\	-ca-
.	.	.	.	.	.	.	.	.	4A/	.	.	.
=52-	=52	=52-	=52	=52-	=52	=52	=52-	=52	=52	=52	=52	=52
*	*	*	*	*lig	*	*	*	*	*	*	*	*
!	!	!	!	!LO:N:vis=0	!	!	!	!	!	!	!	!
.	.	.	.	1d	no-	.	.	.	4G/	.	2b/	.
4G/	-pre-	4G/	-pre-	.	.	.	.	.	4A/	.	.	.
*	*	*	*	*	*	*	*	*	*	*	*lig	*
!	!	!	!	!	!	!	!	!	!	!	!LO:N:vis=0	!
2G/	-ca-	2G/	-ca-	.	.	.	.	.	1B/,<	-tor.	1g/	.
=53	=53	=53	=53	=53-	=53	=53	=53	=53	=53-	=53	=53-	=53
!	!	!	!	!LO:N:vis=0	!	!	!	!	!	!	!	!
2E/	-re	2E/	-re	1e	.	.	0r	.	.	.	.	.
!	!	!	!	!	!	!	!	!	!	!	!LO:N:vis=0	!
2C/	p(ro)	2C/	pro	.	.	.	.	.	[<2g\	de-	1cc\	.
*	*	*	*	*Xlig	*	*	*	*	*	*	*Xlig	*
=54-	=54	=54-	=54	=54-	=54	=54	=54	=54	=54	=54	=54-	=54
!	!	!	!	!	!	!	!	!	!LO:N:xstem:cue	!	!	!
1G	no-	1G	no-	1d,<	-bis	.	.	.	4g\]	.	.	.
.	.	.	.	.	.	.	.	.	4g\	-pre-	.	.
.	.	.	.	.	.	.	.	.	2g\	-ca-	2b,</	-re
=55-	=55	=55-	=55	=55	=55	=55	=55	=55	=55	=55	=55	=55
1A,<	-bis	1A,<	-bis	2r	.	.	1r	.	2e/	-re	4cc\	no-
.	.	.	.	.	.	.	.	.	.	.	4dd\	.
.	.	.	.	1c\	Fi-	.	.	.	2c/	pro	4ee,<\	-bis
.	.	.	.	.	.	.	.	.	.	.	4cc\	Fi-
=56	=56	=56	=56	=56-	=56	=56	=56	=56	=56	=56	=56	=56
1G	Fi-	1G	Fi-	.	.	.	2r	.	1g	no-	2dd\	-li-
.	.	.	.	2B/	-li-	.	2.d\	de-	.	.	2g/	-um
=57-	=57	=57-	=57	=57-	=57	=57	=57-	=57	=57-	=57	=57	=57
2D/	-li-	2D/	-li-	1A	-um	.	.	.	1dd	.	4gg\	De-
.	.	.	.	.	.	.	4d\	-pre-	.	.	8ff#X\L	.
.	.	.	.	.	.	.	.	.	.	.	8ee\J	.
2D/	-um	2D/	-um	.	.	.	2d\	-ca-	.	.	2ff#\	.
=58-	=58	=58	=58	=58	=58	=58	=58-	=58	=58-	=58	=58	=58
1G	De-	1G	De-	4G/	DE-	.	2B/	-re	2d,</	-bis	2gg,<\	-i;
.	.	.	.	4A/	.	.	.	.	.	.	.	.
.	.	.	.	4B/	.	.	2G/	pro	1g\	Fi-	2.dd\	de-
.	.	.	.	4G/	.	.	.	.	.	.	.	.
=59-	=59	=59-	=59	=59-	=59	=59	=59	=59	=59-	=59	=59-	=59
1D	-i	1D,<	-i,<	1A	-I!	.	1d	no-	.	.	.	.
.	.	.	.	.	.	.	.	.	.	.	4dd\	-pre-
*	*	*	*	*	*	*	*custos:e	*	*	*	*	*
.	.	.	.	.	.	.	.	.	2f\	-li-	2dd\	-ca-
!	!	!	!	!LO:LB:g=original	!	!	!LO:LB:g=original	!	!LO:LB:g=original	!	!	!
=60	=60	=60	=60	=60	=60	=60	=60	=60	=60	=60	=60	=60
!	!	!	!	!	!	!	!	!	!	!	!LO:TX:t=P:problem=takty 60-61 wątpliwe harmonicznie	!
0r	.	0r	.	1r	.	.	2.e\	.	4g\	-um	2b,</	-re
.	.	.	.	.	.	.	.	.	4d/	.	.	.
.	.	.	.	.	.	.	.	.	[<2g\	De-	2g/	pro
.	.	.	.	.	.	.	4d/	.	.	.	.	.
=61	=61	=61	=61	=61-	=61	=61	=61-	=61	=61	=61	=61	=61
.	.	.	.	2r	.	.	1c,<	-bis	4g\]	.	2a/	no-
.	.	.	.	.	.	.	.	.	8f#X\L	.	.	.
.	.	.	.	.	.	.	.	.	8e\J	.	.	.
!	!	!	!	!	!	!	!	!	!LO:TX:t=P:problem=♯above	!	!	!
.	.	.	.	2.d\	de-	.	.	.	2f#\	.	2a/	-bis
!	!	!LO:LB:g=original	!	!	!	!	!	!	!	!	!	!
=62-	=62	=62	=62	=62-	=62	=62	=62	=62	=62-	=62	=62	=62
2r	.	2r	.	.	.	.	4G/	Fi-	0g,<	-i.	2.b/	Fi-
.	.	.	.	4d\	-pre-	.	4A/	.	.	.	.	.
2.G/	de-	2.G/	de-	2d\	-ca-	.	4B/	.	.	.	.	.
.	.	.	.	.	.	.	4c/	.	.	.	4a/	.
=63-	=63	=63-	=63	=63	=63	=63	=63-	=63	=63-	=63	=63	=63
.	.	.	.	2B/	-re	.	2d\	-li-	.	.	2g/	-li-
4G/	-pre-	4G/	-pre-	.	.	.	.	.	.	.	.	.
2G/	-ca-	2G/	-ca-	1G/	pro	.	2d\	-um	.	.	1b\	.
=64	=64	=64	=64	=64-	=64	=64	=64	=64	=64	=64	=64-	=64
2E/	-re	2E/	-re	.	.	.	1e	De-	2r	.	.	.
2C/	pro	2C/	pro	1c\	.	.	.	.	2.g\	de-	2cc\	-um
=65-	=65	=65-	=65	=65-	=65	=65	=65-	=65	=65-	=65	=65-	=65
*lig	*	*lig	*	*	*	*	*	*	*	*	*	*
!LO:N:vis=0	!	!LO:N:vis=0	!	!	!	!	!	!	!	!	!	!
1G	no-	1G	no-	.	.	.	1d,<	-i	.	.	1dd	De-
.	.	.	.	.	.	.	.	.	4g\	-pre-	.	.
.	.	.	.	2B/	no-	.	.	.	2g\	-ca-	.	.
=66-	=66	=66-	=66	=66	=66	=66	=66	=66	=66	=66	=66-	=66
!LO:N:vis=0	!	!LO:N:vis=0	!	!	!	!	!	!	!	!	!	!
1A	.	1A	.	(4c\	.	.	2r	.	2e,</	-re	1cc,<	-i
.	.	.	.	4d\	.	.	.	.	.	.	.	.
.	.	.	.	4e\	.	.	1d\	Fi-	2c/	pro	.	.
.	.	.	.	4f\)	.	.	.	.	.	.	.	.
*Xlig	*	*Xlig	*	*	*	*	*	*	*	*	*	*
!	!	!	!	!	!	!	!	!	!	!	!LO:LB:g=original	!
=67-	=67	=67-	=67	=67	=67	=67	=67-	=67	=67-	=67	=67	=67
1G	-bis	1G,<	-bis	1g,<	-bis	.	.	.	1d	.	2r	.
.	.	.	.	.	.	.	2B/	-li-	.	.	2.gg\	De-
=68	=68	=68	=68	=68	=68	=68	=68	=68	=68	=68	=68-	=68
1.c	Fi-	1.c	Fi-	2r	.	.	2.c\	-um	(2.e\	no-	.	.
.	.	.	.	.	.	.	.	.	.	.	4gg\	-pre-
.	.	.	.	2.e\	Fi-	.	.	.	.	.	2gg\	-ca-
.	.	.	.	.	.	.	4d\	.	4f\)	.	.	.
=69-	=69	=69-	=69	=69-	=69	=69	=69	=69	=69	=69	=69	=69
.	.	.	.	.	.	.	4e\	De-	2g,<\	-bis	2ee,<\	-re
.	.	.	.	4d\	-li-	.	4f\	.	.	.	.	.
2c\	-li-	2c\	-li-	2e\	-um	.	4g\	.	2g\	Fi-	2cc\	pro
.	.	.	.	.	.	.	4e\	.	.	.	.	.
=70-	=70	=70-	=70	=70	=70	=70	=70	=70	=70-	=70	=70	=70
1F	-um	1F	-um	2c/	De-	.	2.f\	.	2a\	-li-	2cc\	no-
*	*	*	*	*lig	*	*	*	*	*	*	*	*
!	!	!	!	!LO:N:vis=0	!	!	!	!	!	!	!	!
.	.	.	.	1d\	.	.	.	.	2a,<\	-um	2a/	.
.	.	.	.	.	.	.	4e\	.	.	.	.	.
=71	=71	=71	=71	=71-	=71	=71	=71-	=71	=71-	=71	=71	=71
0G	De-	0G	De-	.	.	.	2d\	.	0g	De-	2b\	-bis
!	!	!	!	!LO:N:vis=0	!	!	!	!	!	!	!	!
.	.	.	.	1c\	.	.	2e\	.	.	.	2cc\	Fi-
=72-	=72	=72-	=72	=72-	=72	=72	=72-	=72	=72-	=72	=72-	=72
.	.	.	.	.	.	.	1d	.	.	.	2dd\	-li-
*	*	*	*	*Xlig	*	*	*	*	*	*	*	*
.	.	.	.	2B/	.	.	.	.	.	.	2dd\	-um
=73-	=73	=73-	=73	=73-	=73	=73	=73-	=73	=73-	=73	=73-	=73
*M3/2	*	*M3/2	*	*M3/2	*	*	*M3/2	*	*M3/2	*	*M3/2	*
*	*	*	*	*	*	*	*custos:B	*	*	*	*	*
1.C	-i.	1.C,<	-i.	1.c,<	-i.	.	1.c,<	-i.	1.g,<	-i.	1.ee,<	Dei:
!LO:LB:g=original	!	!	!	!	!	!	!LO:LB:g=original	!	!	!	!	!
=74	=74	=74	=74	=74	=74	=74	=74	=74	=74	=74	=74	=74
2G/	de-	2G/	de-	2d\	de-	.	2B/	de-	2g\	de-	2dd\	de-
2D/	-pre-	2D/	-pre-	2d\	-pre-	.	2A/	-pre-	2f#X\	-pre-	2dd\	-pre-
2G/	-ca-	2G/	-ca-	2d\	-ca-	.	2B/	-ca-	2g\	-ca-	2dd\	-ca-
=75	=75	=75	=75	=75	=75	=75	=75	=75	=75	=75	=75	=75
4C/	-re	4C/	-re	1e	-re	.	1.G	-re	1.g	-re	2.cc\	-re-
4D/	.	4D/	.	.	.	.	.	.	.	.	.	.
4E/	.	4E/	.	.	.	.	.	.	.	.	.	.
4F/	.	4F/	.	.	.	.	.	.	.	.	8b/L	.
.	.	.	.	.	.	.	.	.	.	.	8a/J	.
*	*	*custos:C	*	*	*	*	*	*	*	*	*	*
2G/	.	2G/	pro	2d\	pro	.	.	.	.	.	2b/	-pro
!	!	!LO:LB:g=original	!	!LO:LB:g=original	!	!	!	!	!LO:LB:g=original	!	!	!
=76	=76	=76	=76	=76	=76	=76	=76	=76	=76	=76	=76	=76
2C/	pro	2C/	no-	1g	no-	.	2c/	pro	2e\	pro	2ee\	no-
1D	no-	1D	.	.	.	.	1A	no-	1a	no-	1dd	.
.	.	.	.	2f#X,<\	-bis.	.	.	.	.	.	.	.
=77-	=77	=77-	=77	=77	=77	=77	=77-	=77	=77-	=77	=77	=77
!	!	!	!	!	!	!LO:DY:b:t=For&colon;	!	!	!	!	!	!
1.G	-bis	1.G	-bis.	1g	de-	f	1.G,<	-bis	1.b,<	-bis	1.dd,<	-bis.
.	.	.	.	2fn\	-pre-	.	.	.	.	.	.	.
=78	=78	=78	=78	=78	=78	=78	=78	=78	=78	=78	=78	=78
1c	de-	1c	de-	2e\	-ca-	.	1g	de-	1cc	de-	1ee	de-
.	.	.	.	2c,</	-re	.	.	.	.	.	.	.
2G/	-pre-	2G/	-pre-	4d\	pro	.	2g\	-pre-	2b\	-pre-	2dd\	-pre-
.	.	.	.	4B/	.	.	.	.	.	.	.	.
=79-	=79	=79	=79	=79	=79	=79	=79-	=79	=79-	=79	=79	=79
1A	-ca-	1A	-ca-	4.c/	no-	.	1e	-ca-	1a	-ca-	1cc	-ca-
.	.	.	.	8B/	.	.	.	.	.	.	.	.
.	.	.	.	2A/	.	.	.	.	.	.	.	.
2E/	.	2E/	-re	2B,</	-bis	.	2e\	-re	2g\	-re	2b/	-re
!	!	!	!	!	!	!	!	!	!	!	!LO:LB:g=original	!
=80	=80	=80	=80	=80	=80	=80	=80	=80	=80	=80	=80	=80
!	!	!	!	!LO:N:vis=0	!	!	!	!	!	!	!	!
1F	-re	1F	pro	0.r	.	.	(2.c\	pro	(4f\	pro	1a	pro
.	.	.	.	.	.	.	.	.	4g\	.	.	.
.	.	.	.	.	.	.	.	.	4a\	.	.	.
.	.	.	.	.	.	.	4d\	.	4b\)	.	.	.
4C/	pro	4C/	.	.	.	.	2e\)	.	2cc\	.	2g/	.
4D/	.	4D/	.	.	.	.	.	.	.	.	.	.
=81	=81	=81	=81	=81	=81	=81	=81	=81	=81	=81	=81	=81
4E/	no-	4E/	no-	.	.	.	2e\	no-	2g\	no-	2.cc\	no-
4F/	.	4F/	.	.	.	.	.	.	.	.	.	.
1G	.	1G	.	.	.	.	1d	.	1g	-bis	.	.
.	.	.	.	.	.	.	.	.	.	.	8b\L	.
.	.	.	.	.	.	.	.	.	.	.	8a\J	.
.	.	.	.	.	.	.	.	.	.	.	2b\	.
=82	=82	=82	=82	=82	=82	=82	=82-	=82	=82	=82	=82	=82
1.C	-bis	1.C	-bis	1g	de-	.	1.c,<	-bis,	1.r	.	1.cc	-bis
.	.	.	.	2fn\	-pre-	.	.	.	.	.	.	.
=83	=83	=83	=83	=83	=83	=83	=83	=83	=83	=83	=83	=83
1c	de-	1c	de-	2e\	-ca-	.	1g	de-	1cc	de-	1ee	de-
.	.	.	.	2c/	-re	.	.	.	.	.	.	.
2G/	-pre-	2G/	-pre-	4d/	pro	.	2g\	-pre-	2b\	-pre-	2dd\	-pre-
.	.	.	.	4B/	.	.	.	.	.	.	.	.
=84-	=84	=84	=84	=84	=84	=84	=84-	=84	=84	=84	=84	=84
1A	-ca-	1A	-ca-	4.c/	no-	.	1e	-ca-	1a	-ca-	1cc	-ca-
.	.	.	.	8B/	.	.	.	.	.	.	.	.
.	.	.	.	2A/	.	.	.	.	.	.	.	.
!LO:TX:a:t=P:problem=wykreślone takty	!	!	!	!	!	!	!	!	!	!	!	!
2E/	-re	2E/	-re	2B,</	-bis.	.	2e\	-re	2g\	-re	2b/	-re
!LO:LB:g=original	!	!	!	!	!	!	!	!	!	!	!	!
=85	=85	=85	=85	=85	=85	=85	=85	=85	=85	=85	=85	=85
!	!	!	!	!LO:N:vis=0	!	!	!	!	!	!	!	!
1F	pro	1F	pro	0.r	.	.	2.c\	pro	(4f\	pro	1a	pro
.	.	.	.	.	.	.	.	.	4g\	.	.	.
.	.	.	.	.	.	.	.	.	4a\	.	.	.
.	.	.	.	.	.	.	4d\	.	4b\)	.	.	.
4C/	.	4C/	.	.	.	.	2e\	.	2cc\	.	2g/	.
4D/	.	4D/	.	.	.	.	.	.	.	.	.	.
!	!	!	!	!	!	!	!LO:LB:g=original	!	!	!	!	!
=86	=86	=86	=86	=86	=86	=86	=86	=86	=86	=86	=86	=86
4E/	no-	4E/	no-	.	.	.	2e\	no-	2g\	no-	2.cc\	no-
4F/	.	4F/	.	.	.	.	.	.	.	.	.	.
*	*	*custos:C	*	*	*	*	*	*	*	*	*	*
1G	.	1G	.	.	.	.	1d	.	1g	-bis	.	.
.	.	.	.	.	.	.	.	.	.	.	8b/L	.
.	.	.	.	.	.	.	.	.	.	.	8a/J	.
.	.	.	.	.	.	.	.	.	.	.	2b/	.
!	!	!LO:LB:g=original	!	!	!	!	!	!	!	!	!	!
=87-	=87	=87-	=87	=87-	=87	=87	=87-	=87	=87-	=87	=87-	=87
*M2/2	*	*M2/2	*	*M2/2	*	*	*M2/2	*	*M2/2	*	*M2/2	*
*met(c|)	*	*met(c|)	*	*met(c|)	*	*	*met(c|)	*	*met(c|)	*	*met(c|)	*
2C/	-bis	2C,</	-bis	2.g\	Fi-	.	1c,<	-bis	2.e\	Fi-	2.cc\	.
2.c\	Fi-	2.c\	Fi-	.	.	.	.	.	.	.	.	.
.	.	.	.	4f\	.	.	.	.	4f\	.	4dd\	.
!	!	!	!	!LO:LB:g=original	!	!	!	!	!LO:LB:g=original	!	!	!
=88-	=88	=88-	=88	=88	=88	=88	=88	=88	=88	=88	=88	=88
.	.	.	.	4e\	.	.	2r	.	2g\	.	1ee,<	-bis
4B\	.	4B\	.	4d\	.	.	.	.	.	.	.	.
4A\	.	4A\	.	[2c/	.	.	2e\	Fi-	[<2a\	.	.	.
4G\	.	4G\	.	.	.	.	.	.	.	.	.	.
=89	=89	=89	=89	=89	=89	=89	=89	=89	=89	=89	=89	=89
!	!	!	!	!LO:N:xstem:cue	!	!	!	!	!LO:N:xstem:cue	!	!	!
4F/	.	4F/	.	4c/]	.	.	2f\	-li-	4a\]	.	2r	.
4F/	-li-	4F/	-li-	4c/	-li-	.	.	.	4b\	.	.	.
2C/	-um	2C,</	-um	2c/	-um	.	2.e\	.	2cc\	-li-	2.gg\	Fi-
=90	=90	=90	=90	=90	=90	=90	=90-	=90	=90	=90	=90-	=90
*	*ij	*	*	*	*	*	*	*	*	*	*	*
2.c\	Fi-	2.c\	Fi-	1.e	De-	.	.	.	2g\	-um	.	.
.	.	.	.	.	.	.	4f\	.	.	.	4ff\	.
.	.	.	.	.	.	.	2g\	-um	2.cc\	Fi-	4ee\	.
4B\	.	4B\	.	.	.	.	.	.	.	.	4dd\	.
=91-	=91	=91	=91	=91-	=91	=91	=91	=91	=91-	=91	=91	=91
2.A\	.	2.A\	.	.	.	.	2a\	De-	.	.	4cc\	-li-
.	.	.	.	.	.	.	.	.	4b\	-li-	4dd\	.
.	.	.	.	2c,</	-i	.	2e\	.	2a\	-um	4ee\	-um
!	!	!	!	!	!	!	!	!	!	!	!LO:SIC:v:s=4cc	!
4A\	-li-	4A\	-li-	.	.	.	.	.	.	.	4b\	.
!	!	!	!	!	!	!	!	!	!	!	!LO:LB:g=original	!
=92-	=92	=92-	=92	=92	=92	=92	=92-	=92	=92	=92	=92	=92
1G,<	-um	1G,<	-um	2r	.	.	2.g\	.	2b\	De-	2dd\	De-
*	*Xij	*	*	*	*	*	*	*	*	*	*	*
.	.	.	.	2e\	Fi-	.	.	.	2cc\	.	[<2ee\	.
.	.	.	.	.	.	.	4f\	.	.	.	.	.
=93	=93	=93	=93	=93	=93	=93	=93	=93	=93	=93	=93	=93
!	!	!	!	!	!	!	!	!	!	!	!LO:N:xstem:cue	!
1c	De-	1c	De-	2c/	.	.	1e	.	1g,<	-i	4ee\]	.
.	.	.	.	.	.	.	.	.	.	.	4dd\	.
.	.	.	.	2c/	-li-	.	.	.	.	.	1cc\	.
=94-	=94	=94-	=94	=94	=94	=94	=94-	=94	=94	=94	=94-	=94
!	!	!	!	!	!	!	!	!	!	!	!LO:TX:t=P:problem=takt niejednoznaczy harmonicznie	!
2C/	.	2C/	.	(2.d\	-um	.	2d,<\	-i	2.g\	Fi-	.	.
1G/	-i	1G/	-i,	.	.	.	[<2g\	Fi-	.	.	2b/	.
.	.	.	.	8e\L	.	.	.	.	4f\	.	.	.
.	.	.	.	8f\J)	.	.	.	.	.	.	.	.
=95-	=95	=95-	=95	=95	=95	=95	=95	=95	=95	=95	=95	=95
!	!	!	!	!	!	!	!LO:N:xstem:cue	!	!	!	!LO:TX:t=P:problem=brak 5 taktów (lub nuta terminal longa)	!
.	.	.	.	2.g\	Fi-	.	4g\]	.	4e/	.	1ryy	.
.	.	.	.	.	.	.	4f\	.	4d/	-li-	.	.
2C/	.	2C,</	.	.	.	.	4e\	.	2c/	-um	.	.
!LO:TX:a:t=P:problem=wykreślone takty	!	!	!	!	!	!	!	!	!	!	!	!
.	.	.	.	4f\	.	.	4d\	-li-	.	.	.	.
!LO:LB:g=original	!	!	!	!	!	!	!	!	!	!	!	!
=96	=96	=96	=96	=96	=96	=96	=96	=96	=96	=96	=96	=96
2.c\	Fi-	2.c\	Fi-	4e\	.	.	2c\	-um	2g\	De-	1ryy	.
.	.	.	.	4d\	.	.	.	.	.	.	.	.
.	.	.	.	2.c/	.	.	2e\	De-	1a\	.	.	.
4B\	.	4B\	.	.	.	.	.	.	.	.	.	.
=97-	=97	=97	=97	=97-	=97	=97	=97	=97	=97-	=97	=97	=97
!	!	!	!	!	!	!	!	!	!	!	!LO:TX:t=P:problem=takty 97-98  niejednoznacze harmonicznie	!
4A/	.	4A/	.	.	.	.	2f\	.	.	.	1ryy	.
4G/	-li-	4G/	-li-	4c/	-li-	.	.	.	.	.	.	.
2F,</	-um	2F/	-um	2c/	-um	.	2g\	.	2g\	.	.	.
!	!	!LO:LB:g=original	!	!	!	!	!	!	!	!	!	!
=98	=98	=98	=98	=98	=98	=98	=98	=98	=98	=98	=98	=98
!	!	!	!	!	!	!	!LO:TX:t=P:problem=brak taktu	!	!LO:TX:t=P:problem=brak taktu	!	!	!
2E/	De-	2E/	DE-	2.A/	De-	.	1ryy	.	1ryy	.	1ryy	.
1.F/	.	1.F/	.	.	.	.	.	.	.	.	.	.
.	.	.	.	4B/	.	.	.	.	.	.	.	.
=99-	=99	=99-	=99	=99-	=99	=99	=99-	=99	=99	=99	=99	=99
.	.	.	.	1c	.	.	1a	.	1f	.	1ryy	.
=100-	=100	=100-	=100	=100-	=100	=100	=100-	=100	=100	=100	=100	=100
0C;	-i.	0C;	-I.	0c;	-i.	.	0g;	-i.	0e;	-i.	0cc;	-i.
=101	=101	=101	=101	=101-	=101	=101	=101	=101	=101	=101	=101	=101
!	!	!LO:TX:b:t=O ad M. D. Gm.	!	!LO:TX:b:t=O ad M. D. G.	!	!	!LO:TX:b:t=O ad M. D. Gm.	!	!LO:TX:b:t=O ad M. D. Gm.	!	!LO:TX:b:t=O ad M. D. Gm.	!
.	.	.	.	.	.	.	.	.	.	.	.	.
==	==	==	==	==	==	==	==	==	==	==	==	==
*-	*-	*-	*-	*-	*-	*-	*-	*-	*-	*-	*-	*-
!!!system-decoration: [s1,s2,s3,s4,s5]s6
!!!RDF**kern: < = below
!!!ENC: Marta Lawrence
!!!END: 2021-02-19
!!!ENC: Andrzej Borzym
!!!END: 2021-02-15
